modules/map-icons/icons/post-box.svg

<svg version="1.2" baseProfile="tiny" xmlns="http://www.w3.org/2000/svg" width="50" height="50" viewBox="0 0 50 50" overflow="inherit"><path d="M28.999 4.518c-7.298 0-12.999 5.779-12.999 12.909v30.573h5v-10h16v10h5v-30.573c0-7.13-5.7-12.909-13.001-12.909zm-24.999-2.518l7.364 12h.768c.466-5 3.868-9.104 8.868-10.957v-1.043h-17z"/></svg>

<svg version="1.2" baseProfile="tiny" xmlns="http://www.w3.org/2000/svg" width="50" height="50" viewBox="0 0 50 50" overflow="inherit"><path d="M28.999 4.518C21.701 4.518 16 10.297 16 17.427V48h5V38h16v10h5V17.427c0-7.13-5.7-12.909-13.001-12.909zM4 2l7.364 12h.768C12.598 9 16 4.896 21 3.043V2H4z"/></svg>
